images/linkedin.svg

<?xml version="1.0" encoding="UTF-8" standalone="no"?>
<svg xmlns="http://www.w3.org/2000/svg" xmlns:sodipodi="http://sodipodi.sourceforge.net/DTD/sodipodi-0.dtd" xmlns:inkscape="http://www.inkscape.org/namespaces/inkscape" version="1.1" width="36" height="36" viewBox="0 0 36 36">
 <metadata id="metadata8"/>
 <path d="M 4.4960938 2 C 3.1129625 2 2 3.1129625 2 4.4960938 L 2 31.503906 C 2 32.887038 3.1129625 34 4.4960938 34 L 31.503906 34 C 32.887038 34 34 32.887038 34 31.503906 L 34 4.4960938 C 34 3.1129625 32.887038 2 31.503906 2 L 4.4960938 2 z M 9.296875 6.7265625 C 9.686875 6.7265625 10.052578 6.7975 10.392578 6.9375 C 10.742578 7.0775 11.048594 7.2734375 11.308594 7.5234375 C 11.568594 7.7734375 11.771875 8.0625781 11.921875 8.3925781 C 12.071875 8.7225781 12.148438 9.0770312 12.148438 9.4570312 C 12.148438 9.8270312 12.071875 10.177812 11.921875 10.507812 C 11.771875 10.827812 11.568594 11.113281 11.308594 11.363281 C 11.048594 11.603281 10.742578 11.797266 10.392578 11.947266 C 10.052578 12.087266 9.686875 12.158203 9.296875 12.158203 C 8.916875 12.158203 8.5624219 12.087266 8.2324219 11.947266 C 7.9024219 11.797266 7.6076563 11.603281 7.3476562 11.363281 C 7.0976562 11.113281 6.8980469 10.827812 6.7480469 10.507812 C 6.6080469 10.177812 6.5371094 9.8270313 6.5371094 9.4570312 C 6.5371094 9.0770312 6.6080469 8.7225781 6.7480469 8.3925781 C 6.8980469 8.0625781 7.0976562 7.7734375 7.3476562 7.5234375 C 7.6076563 7.2734375 7.9024219 7.0775 8.2324219 6.9375 C 8.5624219 6.7975 8.916875 6.7265625 9.296875 6.7265625 z M 24.181641 13.476562 C 25.031641 13.476562 25.781641 13.627734 26.431641 13.927734 C 27.091641 14.217734 27.647656 14.628203 28.097656 15.158203 C 28.547656 15.678203 28.887187 16.303203 29.117188 17.033203 C 29.347188 17.753203 29.462891 18.536719 29.462891 19.386719 L 29.462891 29.273438 L 24.8125 29.273438 L 24.8125 19.386719 C 24.8125 18.626719 24.637109 18.037187 24.287109 17.617188 C 23.937109 17.187188 23.422188 16.972656 22.742188 16.972656 C 22.232187 16.972656 21.752734 17.082734 21.302734 17.302734 C 20.852734 17.522734 20.421719 17.8175 20.011719 18.1875 L 20.011719 29.273438 L 15.363281 29.273438 L 15.363281 13.716797 L 18.242188 13.716797 C 18.532188 13.716797 18.772891 13.782109 18.962891 13.912109 C 19.162891 14.042109 19.302812 14.238047 19.382812 14.498047 L 19.652344 15.398438 C 19.952344 15.118437 20.262031 14.857188 20.582031 14.617188 C 20.902031 14.377187 21.241562 14.177578 21.601562 14.017578 C 21.971563 13.847578 22.367109 13.716953 22.787109 13.626953 C 23.217109 13.526953 23.681641 13.476562 24.181641 13.476562 z M 6.9570312 13.716797 L 11.607422 13.716797 L 11.607422 29.273438 L 6.9570312 29.273438 L 6.9570312 13.716797 z " id="rect6678" stroke="#000000" stroke-width="0.191"/>
</svg>

<svg xmlns="http://www.w3.org/2000/svg" viewBox="0 0 36 36"><path d="m4.496 2c-1.383 0-2.496 1.113-2.496 2.496v27.01c0 1.383 1.113 2.496 2.496 2.496h27.01c1.383 0 2.496-1.113 2.496-2.496v-27.01c0-1.383-1.113-2.496-2.496-2.496h-27.01zm4.801 4.727c.39 0 .756.071 1.096.211.35.14.656.336.916.586.26.25.463.539.613.869.15.33.227.684.227 1.064 0 .37-.077.721-.227 1.051-.15.32-.353.605-.613.855-.26.24-.566.434-.916.584-.34.14-.706.211-1.096.211-.38 0-.734-.071-1.064-.211-.33-.15-.625-.344-.885-.584-.25-.25-.45-.535-.6-.855-.14-.33-.211-.681-.211-1.051 0-.38.071-.734.211-1.064.15-.33.35-.619.6-.869.26-.25.555-.446.885-.586.33-.14.684-.211 1.064-.211zm14.885 6.75c.85 0 1.6.151 2.25.451.66.29 1.216.7 1.666 1.23.45.52.79 1.145 1.02 1.875.23.72.346 1.504.346 2.354v9.887h-4.65v-9.887c0-.76-.175-1.35-.525-1.77-.35-.43-.865-.645-1.545-.645-.51 0-.989.11-1.439.33-.45.22-.881.515-1.291.885v11.09h-4.648v-15.557h2.879c.29 0 .531.065.721.195.2.13.34.326.42.586l.27.9c.3-.28.61-.541.93-.781.32-.24.66-.44 1.02-.6.37-.17.766-.301 1.186-.391.43-.1.895-.15 1.395-.15zm-17.225.24h4.65v15.557h-4.65v-15.557z" stroke="#000" stroke-width=".191"/></svg>
